src/public/ic_cast2_24dp.svg

<svg width="24" height="24" xmlns="http://www.w3.org/2000/svg"><g id="Page-1" fill="none" fill-rule="evenodd"><g id="ic_cast2_black_24dp"><g id="ic_remove_circle_white_24dp"><path d="M1 18v3h3c0-1.66-1.34-3-3-3zM1 14v2c2.76 0 5 2.24 5 5h2c0-3.87-3.13-7-7-7z" id="Path" opacity=".3" fill="#000"/><path d="M1 10v2c4.97 0 9 4.03 9 9h2c0-6.08-4.93-11-11-11z" id="Path" fill="#000"/><path d="M21 3H3c-1.1 0-2 .9-2 2v3h2V5h18v14h-7v2h7c1.1 0 2-.9 2-2V5c0-1.1-.9-2-2-2z" id="cast" fill="#000"/><path id="bounds" d="M0 0h24v24H0z"/></g></g></g></svg>

<?xml version="1.0" encoding="UTF-8" standalone="no"?>
<svg width="24px" height="24px" viewBox="0 0 24 24" version="1.1" xmlns="http://www.w3.org/2000/svg" xmlns:xlink="http://www.w3.org/1999/xlink" xmlns:sketch="http://www.bohemiancoding.com/sketch/ns">
    <!-- Generator: Sketch 3.2.2 (9983) - http://www.bohemiancoding.com/sketch -->
    <title>ic_cast2_black_24dp</title>
    <desc>Created with Sketch.</desc>
    <defs></defs>
    <g id="Page-1" stroke="none" stroke-width="1" fill="none" fill-rule="evenodd" sketch:type="MSPage">
        <g id="ic_cast2_black_24dp" sketch:type="MSArtboardGroup">
            <g id="ic_remove_circle_white_24dp" sketch:type="MSLayerGroup">
                <path d="M1,18 L1,21 L4,21 C4,19.34 2.66,18 1,18 L1,18 Z" id="Path" opacity="0.3" fill="#000000" sketch:type="MSShapeGroup"></path>
                <path d="M1,14 L1,16 C3.76,16 6,18.24 6,21 L8,21 C8,17.13 4.87,14 1,14 L1,14 Z" id="Path" opacity="0.3" fill="#000000" sketch:type="MSShapeGroup"></path>
                <path d="M1,10 L1,12 C5.97,12 10,16.03 10,21 L12,21 C12,14.92 7.07,10 1,10 L1,10 Z" id="Path" fill="#000000" sketch:type="MSShapeGroup"></path>
                <path d="M21,3 L3,3 C1.9,3 1,3.9 1,5 L1,8 L3,8 L3,5 L21,5 L21,19 L14,19 L14,21 L21,21 C22.1,21 23,20.1 23,19 L23,5 C23,3.9 22.1,3 21,3 L21,3 Z" id="cast" fill="#000000" sketch:type="MSShapeGroup"></path>
                <rect id="bounds" sketch:type="MSShapeGroup" x="0" y="0" width="24" height="24"></rect>
            </g>
        </g>
        <g id="assets" sketch:type="MSLayerGroup" transform="translate(-304.000000, -106.000000)">
            <g id="64px" transform="translate(0.000000, 114.000000)"></g>
        </g>
    </g>
</svg>
